resources/static/img/icons/shield.svg

<?xml version="1.0" encoding="UTF-8" standalone="no"?>
<svg
   xmlns:dc="http://purl.org/dc/elements/1.1/"
   xmlns:cc="http://creativecommons.org/ns#"
   xmlns:rdf="http://www.w3.org/1999/02/22-rdf-syntax-ns#"
   xmlns:svg="http://www.w3.org/2000/svg"
   xmlns="http://www.w3.org/2000/svg"
   style="fill:none"
   id="svg13"
   version="1.1"
   viewBox="0 0 39.171398 45.999802"
   height="45.999802"
   width="39.171398">
  <metadata
     id="metadata17">
    <rdf:RDF>
      <cc:Work
         rdf:about="">
        <dc:format>image/svg+xml</dc:format>
        <dc:type
           rdf:resource="http://purl.org/dc/dcmitype/StillImage" />
      </cc:Work>
    </rdf:RDF>
  </metadata>
  <g
     transform="translate(-3.4140617)"
     id="g6"
     clip-path="url(#clip0)">
    <path
       style="fill:#395781"
       id="path2"
       d="m 22.9995,14.2363 c -4.8329,0 -8.7646,3.9317 -8.7646,8.7644 0,4.8329 3.9317,8.7646 8.7646,8.7646 4.8327,0 8.7644,-3.9317 8.7644,-8.7646 0,-4.8327 -3.9317,-8.7644 -8.7644,-8.7644 z m 5.2036,7.1138 -6.2789,6.2789 c -0.2635,0.2636 -0.6092,0.3955 -0.9546,0.3955 -0.3453,0 -0.6906,-0.1316 -0.9542,-0.3955 l -2.3995,-2.3994 c -0.5271,-0.5268 -0.5271,-1.3814 0,-1.9085 0.5268,-0.5272 1.3814,-0.5272 1.9085,0 l 1.4452,1.4452 5.325,-5.3246 c 0.5268,-0.5272 1.3814,-0.5272 1.9085,0 0.5271,0.5267 0.5271,1.3813 0,1.9084 z" />
    <path
       style="fill:#395781"
       id="path4"
       d="M 42.5398,12.4808 42.5384,12.445 C 42.5184,12.0032 42.5051,11.5357 42.497,11.0156 42.4595,8.4793 40.4433,6.38131 37.9066,6.23953 32.6177,5.94438 28.5264,4.2198 25.0305,0.812418 L 25.0007,0.783991 c -1.1402,-1.045484 -2.8602,-1.045484 -4.0008,0 L 20.97,0.812418 C 17.4742,4.2198 13.3828,5.94438 8.09398,6.23988 5.55766,6.38131 3.54109,8.4793 3.50354,11.016 3.49582,11.5326 3.48213,12 3.46213,12.445 l -0.00211,0.0832 c -0.10283,5.3931 -0.23057,12.105 2.01481,18.1972 1.23465,3.3502 3.10452,6.2624 5.55727,8.6562 2.7936,2.7262 6.4526,4.8905 10.8753,6.4326 0.1439,0.0502 0.2934,0.0909 0.4457,0.1214 0.2148,0.0428 0.431,0.0642 0.6472,0.0642 0.2162,0 0.4327,-0.0214 0.6471,-0.0642 0.1523,-0.0305 0.3029,-0.0716 0.4475,-0.1221 4.4174,-1.5449 8.0726,-3.7103 10.8637,-6.4361 2.4517,-2.3945 4.3216,-5.3074 5.5573,-8.6583 2.2538,-6.1104 2.1264,-12.835 2.0239,-18.2383 z M 22.9996,34.4644 c -6.3214,0 -11.4638,-5.1425 -11.4638,-11.4638 0,-6.3213 5.1424,-11.4638 11.4638,-11.4638 6.321,0 11.4638,5.1425 11.4638,11.4638 0,6.3213 -5.1428,11.4638 -11.4638,11.4638 z" />
  </g>
  <defs
     id="defs11">
    <clipPath
       id="clip0">
      <rect
         style="fill:#ffffff"
         y="0"
         x="0"
         id="rect8"
         height="46"
         width="46" />
    </clipPath>
  </defs>
</svg>

<svg width="46" height="46" viewBox="0 0 46 46" fill="none" xmlns="http://www.w3.org/2000/svg">
<g clip-path="url(#clip0)">
<path d="M22.9995 14.2363C18.1666 14.2363 14.2349 18.168 14.2349 23.0007C14.2349 27.8336 18.1666 31.7653 22.9995 31.7653C27.8322 31.7653 31.7639 27.8336 31.7639 23.0007C31.7639 18.168 27.8322 14.2363 22.9995 14.2363ZM28.2031 21.3501L21.9242 27.629C21.6607 27.8926 21.315 28.0245 20.9696 28.0245C20.6243 28.0245 20.279 27.8929 20.0154 27.629L17.6159 25.2296C17.0888 24.7028 17.0888 23.8482 17.6159 23.3211C18.1427 22.7939 18.9973 22.7939 19.5244 23.3211L20.9696 24.7663L26.2946 19.4417C26.8214 18.9145 27.676 18.9145 28.2031 19.4417C28.7302 19.9684 28.7302 20.823 28.2031 21.3501Z" fill="#395781"/>
<path d="M42.5398 12.4808L42.5384 12.445C42.5184 12.0032 42.5051 11.5357 42.497 11.0156C42.4595 8.4793 40.4433 6.38131 37.9066 6.23953C32.6177 5.94438 28.5264 4.2198 25.0305 0.812418L25.0007 0.783991C23.8605 -0.261493 22.1405 -0.261493 20.9999 0.783991L20.97 0.812418C17.4742 4.2198 13.3828 5.94438 8.09398 6.23988C5.55766 6.38131 3.54109 8.4793 3.50354 11.016C3.49582 11.5326 3.48213 12 3.46213 12.445L3.46002 12.5282C3.35719 17.9213 3.22945 24.6332 5.47483 30.7254C6.70948 34.0756 8.57935 36.9878 11.0321 39.3816C13.8257 42.1078 17.4847 44.2721 21.9074 45.8142C22.0513 45.8644 22.2008 45.9051 22.3531 45.9356C22.5679 45.9784 22.7841 45.9998 23.0003 45.9998C23.2165 45.9998 23.433 45.9784 23.6474 45.9356C23.7997 45.9051 23.9503 45.864 24.0949 45.8135C28.5123 44.2686 32.1675 42.1032 34.9586 39.3774C37.4103 36.9829 39.2802 34.07 40.5159 30.7191C42.7697 24.6087 42.6423 17.8841 42.5398 12.4808ZM22.9996 34.4644C16.6782 34.4644 11.5358 29.3219 11.5358 23.0006C11.5358 16.6793 16.6782 11.5368 22.9996 11.5368C29.3206 11.5368 34.4634 16.6793 34.4634 23.0006C34.4634 29.3219 29.3206 34.4644 22.9996 34.4644Z" fill="#395781"/>
</g>
<defs>
<clipPath id="clip0">
<rect width="46" height="46" fill="white"/>
</clipPath>
</defs>
</svg>
